16x16/actions/filename-discnumber-amarok.svg

<svg xmlns="http://www.w3.org/2000/svg" viewBox="0 0 16 16"><path style="fill:currentColor;fill-opacity:1;stroke:none;color:#5d656b" d="M8 2a6 6 0 0 0-6 6 6 6 0 0 0 5 5.914v-1.016A5 5 0 0 1 3 8a5 5 0 0 1 5-5 5 5 0 0 1 4.895 4h1.015A6 6 0 0 0 8 2zm0 2a4 4 0 0 0-4 4h2a2 2 0 0 1 2-2V4zm1 4v1H8v1h1v2H8v1h1v1h1v-1h2v1h1v-1h1v-1h-1v-2h1V9h-1V8h-1v1h-2V8H9zm1 2h2v2h-2v-2z"/></svg>

<svg xmlns="http://www.w3.org/2000/svg" viewBox="0 0 16 16">
  <defs id="defs3051">
    <style type="text/css" id="current-color-scheme">
      .ColorScheme-Text {
        color:#5d656b;
      }
      </style>
  </defs>
 <path style="fill:currentColor;fill-opacity:1;stroke:none" 
     d="M 8 2 A 6 6 0 0 0 2 8 A 6 6 0 0 0 7 13.914062 L 7 12.898438 A 5 5 0 0 1 3 8 A 5 5 0 0 1 8 3 A 5 5 0 0 1 12.894531 7 L 13.910156 7 A 6 6 0 0 0 8 2 z M 8 4 C 5.79086 4 4 5.79086 4 8 L 6 8 C 6 6.89543 6.89543 6 8 6 L 8 4 z M 9 8 L 9 9 L 8 9 L 8 10 L 9 10 L 9 12 L 8 12 L 8 13 L 9 13 L 9 14 L 10 14 L 10 13 L 12 13 L 12 14 L 13 14 L 13 13 L 14 13 L 14 12 L 13 12 L 13 10 L 14 10 L 14 9 L 13 9 L 13 8 L 12 8 L 12 9 L 10 9 L 10 8 L 9 8 z M 10 10 L 12 10 L 12 12 L 10 12 L 10 10 z "
     class="ColorScheme-Text"
     />
</svg>
